svg/color/cho.svg

<svg viewBox="0 0 33 18" fill="none" xmlns="http://www.w3.org/2000/svg">
<g clip-path="url(#clip0_1492_170237)">
<path d="M0 8.8528C0 4.1296 3.93376 0.300781 8.78631 0.300781H23.5473C28.3998 0.300781 32.3336 4.1296 32.3336 8.8528C32.3336 13.5759 28.3998 17.4048 23.5473 17.4048H8.78631C3.93376 17.4048 0 13.5759 0 8.8528Z" fill="#191B20"/>
<path d="M11.9497 8.8534C11.9497 5.2302 14.9394 2.29297 18.6273 2.29297H22.8447C26.5327 2.29297 29.5223 5.2302 29.5223 8.8534C29.5223 12.4766 26.5327 15.4139 22.8447 15.4139H18.6273C14.9394 15.4139 11.9497 12.4766 11.9497 8.8534Z" fill="url(#paint0_linear_1492_170237)"/>
</g>
<defs>
<linearGradient id="paint0_linear_1492_170237" x1="29.5223" y1="8.8534" x2="13.0481" y2="13.1072" gradientUnits="userSpaceOnUse">
<stop stop-color="#5CEE9C"/>
<stop offset="1" stop-color="#FFFB1F"/>
</linearGradient>
<clipPath id="clip0_1492_170237">
<rect width="33" height="18" fill="white"/>
</clipPath>
</defs>
</svg>

<svg xmlns="http://www.w3.org/2000/svg" fill="none" viewBox="0 0 33 18"><g clip-path="url(#cho_svg-a)"><path fill="#191B20" d="M0 8.853C0 4.13 3.934.3 8.786.3h14.761c4.853 0 8.787 3.829 8.787 8.552s-3.934 8.552-8.787 8.552H8.787C3.933 17.405 0 13.575 0 8.853"/><path fill="url(#cho_svg-b)" d="M11.95 8.853c0-3.623 2.99-6.56 6.677-6.56h4.218c3.688 0 6.677 2.937 6.677 6.56 0 3.624-2.99 6.56-6.677 6.56h-4.218c-3.688 0-6.677-2.936-6.677-6.56"/></g><defs><linearGradient id="cho_svg-b" x1="29.522" x2="13.048" y1="8.853" y2="13.107" gradientUnits="userSpaceOnUse"><stop stop-color="#5CEE9C"/><stop offset="1" stop-color="#FFFB1F"/></linearGradient><clipPath id="cho_svg-a"><path fill="#fff" d="M0 0h33v18H0z"/></clipPath></defs></svg>
